public/assets/icons/logo-full.svg

<svg width="224" height="82" viewBox="0 0 224 82" fill="none" xmlns="http://www.w3.org/2000/svg">
<path d="M112.71 53.7349C110.964 53.7349 109.392 53.4356 107.996 52.8369C106.599 52.2133 105.501 51.3403 104.703 50.2178C103.905 49.0953 103.506 47.7858 103.506 46.2891H108.07C108.17 47.4116 108.607 48.3345 109.38 49.0579C110.178 49.7813 111.288 50.143 112.71 50.143C114.182 50.143 115.329 49.7938 116.152 49.0953C116.975 48.372 117.387 47.449 117.387 46.3265C117.387 45.4535 117.125 44.7426 116.601 44.1938C116.102 43.645 115.466 43.221 114.693 42.9217C113.945 42.6223 112.897 42.2981 111.55 41.9488C109.854 41.4999 108.469 41.0509 107.397 40.6019C106.349 40.1279 105.451 39.4046 104.703 38.4317C103.955 37.4589 103.58 36.1618 103.58 34.5404C103.58 33.0438 103.955 31.7342 104.703 30.6118C105.451 29.4893 106.499 28.6287 107.846 28.03C109.193 27.4314 110.752 27.1321 112.523 27.1321C115.042 27.1321 117.1 27.7681 118.697 29.0403C120.318 30.2875 121.216 32.0086 121.391 34.2037H116.676C116.601 33.2558 116.152 32.4451 115.329 31.7717C114.506 31.0982 113.421 30.7614 112.074 30.7614C110.852 30.7614 109.854 31.0732 109.081 31.6968C108.307 32.3204 107.921 33.2184 107.921 34.3908C107.921 35.189 108.158 35.85 108.632 36.3738C109.13 36.8727 109.754 37.2718 110.502 37.5712C111.251 37.8705 112.273 38.1948 113.571 38.544C115.292 39.0179 116.689 39.4919 117.761 39.9658C118.859 40.4397 119.782 41.1756 120.53 42.1733C121.303 43.1462 121.69 44.4557 121.69 46.102C121.69 47.4241 121.328 48.6713 120.605 49.8437C119.906 51.016 118.871 51.9639 117.499 52.6873C116.152 53.3857 114.556 53.7349 112.71 53.7349ZM131.699 36.3364V47.7484C131.699 48.5216 131.874 49.0829 132.223 49.4321C132.597 49.7564 133.221 49.9185 134.094 49.9185H136.713V53.473H133.346C131.425 53.473 129.953 53.024 128.93 52.126C127.908 51.2281 127.396 49.7688 127.396 47.7484V36.3364H124.964V32.8567H127.396V27.7307H131.699V32.8567H136.713V36.3364H131.699ZM149.587 53.8098C147.641 53.8098 145.883 53.3732 144.311 52.5002C142.74 51.6022 141.505 50.355 140.607 48.7586C139.709 47.1372 139.26 45.2664 139.26 43.1462C139.26 41.0509 139.721 39.1925 140.644 37.5712C141.567 35.9498 142.827 34.7026 144.423 33.8295C146.02 32.9565 147.803 32.52 149.774 32.52C151.744 32.52 153.528 32.9565 155.124 33.8295C156.721 34.7026 157.98 35.9498 158.903 37.5712C159.826 39.1925 160.288 41.0509 160.288 43.1462C160.288 45.2415 159.814 47.0998 158.866 48.7212C157.918 50.3425 156.621 51.6022 154.975 52.5002C153.353 53.3732 151.557 53.8098 149.587 53.8098ZM149.587 50.1056C150.684 50.1056 151.707 49.8437 152.655 49.3198C153.628 48.796 154.413 48.0103 155.012 46.9626C155.611 45.915 155.91 44.6428 155.91 43.1462C155.91 41.6495 155.623 40.3898 155.05 39.3671C154.476 38.3195 153.715 37.5337 152.767 37.0099C151.819 36.4861 150.797 36.2242 149.699 36.2242C148.601 36.2242 147.579 36.4861 146.631 37.0099C145.708 37.5337 144.972 38.3195 144.423 39.3671C143.875 40.3898 143.6 41.6495 143.6 43.1462C143.6 45.3662 144.161 47.0873 145.284 48.3096C146.431 49.5069 147.866 50.1056 149.587 50.1056ZM168.77 35.85C169.393 34.8024 170.217 33.9917 171.239 33.418C172.287 32.8193 173.522 32.52 174.944 32.52V36.9351H173.858C172.187 36.9351 170.915 37.3591 170.042 38.2072C169.194 39.0553 168.77 40.527 168.77 42.6223V53.473H164.504V32.8567H168.77V35.85ZM197.759 42.6598C197.759 43.433 197.71 44.1315 197.61 44.7551H181.858C181.982 46.4014 182.593 47.7234 183.691 48.7212C184.789 49.7189 186.136 50.2178 187.732 50.2178C190.027 50.2178 191.648 49.2575 192.596 47.3368H197.198C196.575 49.2325 195.44 50.7915 193.793 52.0138C192.172 53.2111 190.152 53.8098 187.732 53.8098C185.761 53.8098 183.99 53.3732 182.419 52.5002C180.872 51.6022 179.65 50.355 178.752 48.7586C177.879 47.1372 177.443 45.2664 177.443 43.1462C177.443 41.0259 177.867 39.1676 178.715 37.5712C179.588 35.9498 180.798 34.7026 182.344 33.8295C183.916 32.9565 185.711 32.52 187.732 32.52C189.678 32.52 191.411 32.944 192.933 33.7921C194.454 34.6402 195.639 35.8375 196.487 37.3841C197.335 38.9057 197.759 40.6642 197.759 42.6598ZM193.307 41.3128C193.282 39.7413 192.721 38.4816 191.623 37.5337C190.526 36.5859 189.166 36.1119 187.545 36.1119C186.073 36.1119 184.814 36.5859 183.766 37.5337C182.718 38.4567 182.095 39.7164 181.895 41.3128H193.307ZM206.223 27.4688V53.473H201.957V27.4688H206.223ZM216.799 36.3364V47.7484C216.799 48.5216 216.974 49.0829 217.323 49.4321C217.697 49.7564 218.321 49.9185 219.194 49.9185H221.813V53.473H218.445C216.525 53.473 215.053 53.024 214.03 52.126C213.008 51.2281 212.496 49.7688 212.496 47.7484V36.3364H210.064V32.8567H212.496V27.7307H216.799V32.8567H221.813V36.3364H216.799Z" fill="white"/>
<rect opacity="0.2" width="74.8323" height="74.8323" rx="37.4161" fill="white"/>
<rect x="32.7393" y="31.1801" width="49.8882" height="49.8882" rx="24.9441" fill="white"/>
</svg>

<svg xmlns="http://www.w3.org/2000/svg" width="224" height="82" fill="none"><path fill="#fff" d="M112.71 53.735q-2.62 0-4.714-.898-2.096-.936-3.293-2.62-1.197-1.683-1.197-3.928h4.564q.15 1.684 1.31 2.769 1.197 1.085 3.33 1.085 2.208 0 3.442-1.048 1.235-1.085 1.235-2.768 0-1.31-.786-2.133-.748-.824-1.908-1.272-1.122-.45-3.143-.973-2.544-.674-4.153-1.347-1.572-.71-2.694-2.17-1.123-1.46-1.123-3.892 0-2.245 1.123-3.928 1.122-1.684 3.143-2.582t4.677-.898q3.778 0 6.174 1.908 2.432 1.872 2.694 5.164h-4.715q-.112-1.422-1.347-2.432t-3.255-1.01q-1.833 0-2.993.935-1.16.934-1.16 2.694 0 1.197.711 1.983.748.749 1.87 1.197 1.123.45 3.069.973 2.582.711 4.19 1.422 1.647.711 2.769 2.207 1.16 1.46 1.16 3.929 0 1.983-1.085 3.742-1.048 1.758-3.106 2.843-2.02 1.048-4.789 1.048m18.989-17.399v11.412q0 1.16.524 1.684.561.486 1.871.486h2.619v3.555h-3.367q-2.881 0-4.416-1.347-1.534-1.347-1.534-4.378V36.336h-2.432v-3.48h2.432v-5.125h4.303v5.126h5.014v3.48zm17.888 17.474q-2.918 0-5.276-1.31a9.7 9.7 0 0 1-3.704-3.741q-1.347-2.433-1.347-5.613 0-3.142 1.384-5.575 1.385-2.432 3.779-3.741t5.351-1.31q2.955 0 5.35 1.31t3.779 3.741 1.385 5.575q0 3.144-1.422 5.575a9.95 9.95 0 0 1-3.891 3.78q-2.433 1.308-5.388 1.309m0-3.704q1.646 0 3.068-.786 1.459-.786 2.357-2.357t.898-3.817q0-2.244-.86-3.779-.861-1.57-2.283-2.357a6.24 6.24 0 0 0-3.068-.786 6.24 6.24 0 0 0-3.068.786q-1.384.786-2.208 2.357-.823 1.535-.823 3.78 0 3.33 1.684 5.163 1.721 1.796 4.303 1.796M168.77 35.85a6.6 6.6 0 0 1 2.469-2.432q1.572-.898 3.705-.898v4.415h-1.086q-2.507 0-3.816 1.272-1.272 1.272-1.272 4.415v10.851h-4.266V32.857h4.266zm28.989 6.81q0 1.16-.149 2.095h-15.752q.186 2.469 1.833 3.966t4.041 1.497q3.442 0 4.864-2.881h4.602q-.935 2.843-3.405 4.677-2.431 1.796-6.061 1.796-2.956 0-5.313-1.31-2.32-1.347-3.667-3.741-1.31-2.433-1.309-5.613 0-3.18 1.272-5.575 1.31-2.432 3.629-3.741 2.357-1.31 5.388-1.31 2.918 0 5.201 1.272a8.96 8.96 0 0 1 3.554 3.592q1.272 2.282 1.272 5.276m-4.452-1.347q-.037-2.357-1.684-3.78-1.646-1.42-4.078-1.421-2.207 0-3.779 1.422-1.571 1.384-1.871 3.779zm12.916-13.844v26.004h-4.266V27.469zm10.576 8.867v11.412q0 1.16.524 1.684.561.486 1.871.486h2.619v3.555h-3.368q-2.88 0-4.415-1.347-1.533-1.347-1.534-4.378V36.336h-2.432v-3.48h2.432v-5.125h4.303v5.126h5.014v3.48z"/><rect width="74.832" height="74.832" fill="#fff" opacity=".2" rx="37.416"/><rect width="49.888" height="49.888" x="32.739" y="31.18" fill="#fff" rx="24.944"/></svg>
